!!!OTL: Jm Grabe ist Ruh'.
!!!OTL-incipit: IM GRABE IST RUH
!!!ARE: Europa, Mitteleuropa, Deutschland
!!!SCT: F1038
!!!TXL: @@DE
!!!YEM: Copyright 1995, estate of Helmut Schaffrath.
**kern	**text
*ICvox	*
*clefG2	*
*M2/4	*
*k[b-e-a-d-]	*
*A-:	*
!LO:TX:a:t=Langſam und ſanft.	!
!LO:TX:a:t=P:only the highest voice encoded:problem	!
{8e-	1._Jm
=1	=1
4cc/	Grabe
8b-/	.
8b-/	iſt
=2	=2
4a-	Ruh!
8r}	.
{8e-	drum
=3	=3
4a-	wanken
8a-	.
8a-	dem
=4	=4
4cc/	tröſtenden
8cc/	.
8ee-/	.
=5	=5
(>4ee-/	Ʒie-
4dd-/)	.
=6	=6
4cc/	-le
8r}	.
{8a-	der
=7	=7
4ff/	Leiden-
8ff/	.
8ff/	-den
=8	=8
8.ee-/L	Vie-
16dd-J	.
8cc/}	-le
{8ee-/	ſo
=9	=9
(8ee-/L	ſehnſuchtsvoll
8dd-J)	.
8cc/	.
8b-/	.
=10	=10
4cc/	ʒu,
8r}	.
{8a-	der
=11	=11
4ff/	Lei-
8ff/	-den-
8ff/	-den
=12	=12
8.ee-/>L	Vie-
16dd-J	.
8cc/}	-le
{8ee-/	ſo
=13	=13
(8ee-/L	ſehnſuchtsvoll
8dd-/J)	.
8cc/	.
8b-/	.
=14	=14
4a-	ʒu.
8r}	.
==	==
!!!AGN: Trauer -, Bregraebnis -, Trost - Lied
!!!ONB: ESAC (Essen Associative Code) Database: FINK
!!!AMT: simple duple
!!!AIN: vox
!!!EED: Helmut Schaffrath
!!!EEV: 1.0
!!!RDF**kern: > = above
!!!GTL: Trauer- Begraebniss- und Trostlieder
!!!URL-scan: https://www.digitale-sammlungen.de/en/view/bsb11144622?page=657
!!!ENC: Anna Maria Matuszewska
!!!EEV: 2024/09/08
*-	*-
